assets/Woman beard/Default/Flat/woman_beard_flat_default.svg

<svg width="32" height="32" viewBox="0 0 32 32" fill="none" xmlns="http://www.w3.org/2000/svg">
<path d="M30 17.8679C30 18.8113 29.7925 19.717 29.3962 20.5283C29.2642 20.7925 29.2642 21.1132 29.3962 21.3774C29.7736 22.1698 30 23.0566 30 24C30 27.3208 27.3208 30 24 30H8C4.67924 30 2 27.3208 2 24C2 23.0566 2.22641 22.1698 2.60377 21.3774C2.73585 21.1132 2.73585 20.7925 2.60377 20.5283C2.22641 19.717 2 18.8302 2 17.8679C2 16.6067 2.37561 15.4582 3.0144 14.4785L3.01867 14.4717C3.66018 13.4906 3.99981 12.3396 3.99981 11.1698V11.1509C3.99981 7.80772 6.66921 5.08614 9.99222 5.00201C10.0449 5.00067 10.0977 5 10.1507 5C10.4904 5 10.8111 4.83019 10.9998 4.56604C12.113 3.01887 13.9432 2 15.9998 2C18.0564 2 19.8868 3.01887 21 4.56604C21.1887 4.84906 21.5094 5 21.8491 5C25.2453 5 28 7.75472 28 11.1509V11.1698C28 12.3396 28.3396 13.4906 28.9811 14.4717L28.9849 14.4775C29.1907 14.7777 29.3593 15.0965 29.5092 15.434H29.4993C29.8207 16.1792 30 16.9966 30 17.8679Z" fill="#F1A11E"/>
<path d="M10.3 18C10.3 19.6569 8.95684 21 7.29999 21C5.64313 21 4.29999 19.6569 4.29999 18C4.29999 16.3431 5.64313 15 7.29999 15C8.95684 15 10.3 16.3431 10.3 18Z" fill="#FDBB11"/>
<path d="M28 18C28 19.6569 26.6569 21 25 21C23.3431 21 22 19.6569 22 18C22 16.3431 23.3431 15 25 15C26.6569 15 28 16.3431 28 18Z" fill="#FDBB11"/>
<path d="M6.51528 15.5459H6.53824L6.51912 15.0513L6.5 14.4806C6.53824 12.7115 7.57068 12.0267 8.01042 11.7984C8.0391 11.7889 8.07256 11.7746 8.10602 11.7604C8.13947 11.7461 8.17293 11.7318 8.20161 11.7223C9.19581 11.2658 9.99882 10.4668 10.4194 9.4206L10.5724 9.05917C10.7253 8.69774 11.2033 8.64067 11.4328 8.96405C12.7711 10.9234 15.0081 12.0078 17.3788 12.0078H23.3823C23.718 12.0078 25.3999 12.2467 25.5 14.5675L24.2786 19.0181C24.0487 24.2431 20.9684 27.7516 15.9878 27.7516C11.0071 27.7516 7.92683 24.2431 7.69695 19.0181L6.51528 15.5459Z" fill="#FFC83D"/>
<path d="M6.50397 20.1273V14.3651C6.55591 13.2654 6.99928 12.6025 7.4204 12.2127L7.51521 15.2189C7.71825 17.9349 8.53041 20.5503 9.9517 22.8639C10.1547 23.2663 10.6623 23.2663 10.9669 22.9645L11.8806 22.0592C12.1852 21.6568 12.7943 21.4556 13.3019 21.4556H18.8855C19.3931 21.4556 19.9007 21.6568 20.3068 22.0592L21.2205 23.0651C21.525 23.3669 22.0326 23.3669 22.2357 22.9645L22.3 22.8639C23.7213 20.5503 24.4691 17.9349 24.5707 15.3195L24.6667 12.5312C25.0872 12.883 25.4548 13.5198 25.5 14.5676C25.5 14.5676 25.5039 19.9286 25.5 20.0181C25.2701 25.2431 20.9806 28.7517 16 28.7517C11.0541 28.7517 6.78551 25.292 6.50397 20.1273ZM12.75 23.3669V25.0769C12.75 26.0828 13.5 26.8876 14.5 26.8876C14.703 26.8876 15 26.6864 15 26.4852V26.284C15 25.6805 15.5353 25.2781 16.0429 25.2781C16.6521 25.2781 17 25.7811 17 26.284C17 26.284 17 26.284 17 26.4852C17 26.6864 17.297 26.8876 17.5 26.8876C18.5152 26.8876 19.25 26.0828 19.25 25.0769V23.3669C19.25 22.8639 18.8855 22.4615 18.3779 22.4615H13.708C13.2004 22.4615 12.75 22.8639 12.75 23.3669Z" fill="#EA9129"/>
<path d="M16 23.3954C15.0538 23.3954 14.1644 23.1727 13.417 22.7831C13.1615 22.6532 12.8871 22.9408 13.048 23.1727C13.6724 24.1191 14.7605 24.75 16 24.75C17.2395 24.75 18.3276 24.1191 18.952 23.1727C19.1129 22.9315 18.8385 22.6532 18.583 22.7831C17.8356 23.1727 16.9556 23.3954 16 23.3954Z" fill="#990839"/>
<path d="M15.2872 17.5266L14.2963 20.6961C14.0941 21.348 14.5794 22 15.2669 22H16.7331C17.4206 22 17.9059 21.338 17.7037 20.6961L16.7128 17.5266C16.5005 16.8245 15.5096 16.8245 15.2872 17.5266Z" fill="#ED9200"/>
<path d="M11 15.4C12 15.4 13.025 16.2 13.525 17C12.9262 17.1842 12.3698 17.326 11.8266 17.4645C11.1904 17.6267 10.5723 17.7842 9.92499 18L8.92497 17.3C8.52497 17 8.42498 16.5 9.02497 16.1C9.62497 15.6 10.3 15.4 11 15.4Z" fill="black"/>
<path d="M21.2 15.4C20.2 15.4 19.175 16.2 18.675 17C19.2738 17.1842 19.8301 17.326 20.3734 17.4645C21.0095 17.6267 21.6277 17.7842 22.275 18L23.275 17.3C23.675 17 23.775 16.5 23.175 16.1C22.575 15.6 21.9 15.4 21.2 15.4Z" fill="black"/>
<path d="M9.01481 17.3673C9.30113 16.2403 10.3279 15.4 11.5423 15.4C12.8061 15.4 13.8625 16.2996 14.0994 17.4958C14.1488 17.7627 13.9415 18 13.6749 18H9.51834C9.18266 18 8.93583 17.6935 9.01481 17.3673Z" fill="white"/>
<path d="M22.9852 17.3673C22.6989 16.2403 21.6721 15.4 20.4577 15.4C19.1841 15.4 18.1375 16.2996 17.9006 17.4958C17.8512 17.7627 18.0585 18 18.3251 18H22.4817C22.8173 18 23.0642 17.6935 22.9852 17.3673Z" fill="white"/>
<path d="M10.2588 17.5568C10.2588 16.6311 11.0091 15.8924 11.9273 15.8924C12.8455 15.8924 13.586 16.6311 13.586 17.5568C13.586 17.7144 13.5663 17.8621 13.5268 18H10.318C10.2785 17.8523 10.2588 17.7144 10.2588 17.5568Z" fill="#7D4533"/>
<path d="M21.7412 17.5568C21.7412 16.6311 20.9908 15.8924 20.0726 15.8924C19.1545 15.8924 18.4041 16.6311 18.414 17.5568C18.414 17.7144 18.4337 17.8621 18.4732 18H21.682C21.7214 17.8523 21.7412 17.7144 21.7412 17.5568Z" fill="#7D4533"/>
<path d="M11.9274 16.6114C12.4506 16.6114 12.8752 17.0348 12.8752 17.5568C12.8752 17.7144 12.8357 17.8621 12.7666 18H11.0882C11.019 17.8621 10.9796 17.7144 10.9796 17.5568C10.9796 17.0348 11.4041 16.6114 11.9274 16.6114Z" fill="black"/>
<path d="M20.0627 16.6114C19.5395 16.6114 19.1149 17.0348 19.1149 17.5568C19.1149 17.7144 19.1544 17.8621 19.2235 18H20.902C20.9711 17.8621 21.0106 17.7144 21.0106 17.5568C21.0106 17.0348 20.586 16.6114 20.0627 16.6114Z" fill="black"/>
<path d="M11.6509 16.92C11.6509 17.0857 11.5183 17.22 11.3547 17.22C11.1911 17.22 11.0585 17.0857 11.0585 16.92C11.0585 16.7543 11.1911 16.62 11.3547 16.62C11.5183 16.62 11.6509 16.7543 11.6509 16.92Z" fill="white"/>
<path d="M19.8456 16.92C19.8456 17.0857 19.7129 17.22 19.5494 17.22C19.3858 17.22 19.2532 17.0857 19.2532 16.92C19.2532 16.7543 19.3858 16.62 19.5494 16.62C19.7129 16.62 19.8456 16.7543 19.8456 16.92Z" fill="white"/>
<path d="M9.66547 14.5853L9.65729 14.59C9.42053 14.7319 9.11332 14.6552 8.97129 14.4185C8.82922 14.1817 8.906 13.8746 9.14279 13.7325L9.14415 13.7317L9.14608 13.7305L9.15158 13.7273L9.16913 13.7171C9.1837 13.7088 9.20396 13.6974 9.22961 13.6835C9.28087 13.6558 9.35381 13.6178 9.44585 13.5739C9.62956 13.4864 9.89141 13.3742 10.2105 13.2724C10.8442 13.0702 11.7303 12.9 12.6869 13.0688C12.9589 13.1168 13.1404 13.3762 13.0924 13.6481C13.0444 13.9201 12.7851 14.1016 12.5131 14.0536C11.7697 13.9224 11.0559 14.0523 10.5146 14.2251C10.2462 14.3107 10.0268 14.4048 9.87611 14.4767C9.80096 14.5125 9.74343 14.5425 9.70602 14.5628C9.68733 14.5729 9.67371 14.5806 9.66547 14.5853Z" fill="#D37034"/>
<path d="M22.857 13.7323L22.8559 13.7317L22.854 13.7305L22.8485 13.7273L22.8309 13.7171C22.8164 13.7088 22.7961 13.6974 22.7705 13.6835C22.7192 13.6558 22.6463 13.6178 22.5542 13.5739C22.3705 13.4864 22.1087 13.3742 21.7896 13.2724C21.1559 13.0702 20.2697 12.9 19.3131 13.0688C19.0412 13.1168 18.8597 13.3762 18.9076 13.6481C18.9556 13.9201 19.215 14.1016 19.4869 14.0536C20.2303 13.9224 20.9442 14.0523 21.4855 14.2251C21.7539 14.3107 21.9733 14.4048 22.124 14.4767C22.1991 14.5125 22.2567 14.5425 22.2941 14.5628C22.3128 14.5729 22.3264 14.5806 22.3346 14.5853L22.3429 14.59L22.3438 14.5906C22.5804 14.7318 22.8869 14.655 23.0288 14.4185C23.1709 14.1817 23.0938 13.8744 22.857 13.7323Z" fill="#D37034"/>
</svg>

<svg xmlns="http://www.w3.org/2000/svg" width="32" height="32" fill="none"><path fill="#F1A11E" d="M30 17.868c0 .943-.207 1.849-.604 2.66a.96.96 0 0 0 0 .85c.378.792.604 1.679.604 2.622 0 3.32-2.68 6-6 6H8c-3.32 0-6-2.68-6-6 0-.943.226-1.83.604-2.623a.96.96 0 0 0 0-.849A6.253 6.253 0 0 1 2 17.868c0-1.261.376-2.41 1.014-3.39l.005-.006a6.04 6.04 0 0 0 .98-3.302v-.02A6.152 6.152 0 0 1 10.152 5c.34 0 .66-.17.849-.434A6.163 6.163 0 0 1 16 2a6.163 6.163 0 0 1 5 2.566c.189.283.51.434.85.434A6.152 6.152 0 0 1 28 11.15v.02c0 1.17.34 2.32.981 3.302l.004.005c.206.3.374.62.524.957h-.01c.322.745.501 1.563.501 2.434Z"/><path fill="#FDBB11" d="M10.3 18a3 3 0 1 1-6 0 3 3 0 0 1 6 0ZM28 18a3 3 0 1 1-6 0 3 3 0 0 1 6 0Z"/><path fill="#FFC83D" d="M6.515 15.546h.023l-.019-.495-.019-.57c.038-1.77 1.07-2.454 1.51-2.683.03-.01.063-.023.096-.038.033-.014.067-.028.096-.038a4.296 4.296 0 0 0 2.217-2.301l.153-.362a.492.492 0 0 1 .86-.095c1.34 1.96 3.576 3.044 5.947 3.044h6.003c.336 0 2.018.239 2.118 2.56l-1.221 4.45c-.23 5.225-3.31 8.734-8.291 8.734-4.98 0-8.061-3.509-8.291-8.734l-1.182-3.472Z"/><path fill="#EA9129" d="M6.504 20.127v-5.762c.052-1.1.495-1.763.916-2.152l.095 3.006c.203 2.716 1.015 5.331 2.437 7.645.203.402.71.402 1.015.1l.914-.905c.304-.402.913-.603 1.42-.603h5.585c.507 0 1.015.2 1.42.603l.915 1.006c.304.302.812.302 1.015-.1l.064-.101a15.571 15.571 0 0 0 2.27-7.545l.097-2.788c.42.352.788.989.833 2.037 0 0 .004 5.36 0 5.45-.23 5.225-4.52 8.734-9.5 8.734-4.946 0-9.214-3.46-9.496-8.625Zm6.246 3.24v1.71c0 1.006.75 1.81 1.75 1.81.203 0 .5-.2.5-.402v-.201c0-.604.535-1.006 1.043-1.006.61 0 .957.503.957 1.006v.201c0 .201.297.403.5.403 1.015 0 1.75-.805 1.75-1.811v-1.71c0-.503-.364-.905-.872-.905h-4.67c-.508 0-.958.402-.958.905Z"/><path fill="#990839" d="M16 23.395a5.603 5.603 0 0 1-2.583-.612c-.255-.13-.53.158-.369.39A3.53 3.53 0 0 0 16 24.75a3.53 3.53 0 0 0 2.952-1.577c.16-.241-.114-.52-.369-.39a5.574 5.574 0 0 1-2.583.612Z"/><path fill="#ED9200" d="m15.287 17.527-.99 3.17a1.005 1.005 0 0 0 .97 1.303h1.466c.688 0 1.173-.662.97-1.304l-.99-3.17c-.213-.701-1.203-.701-1.426 0Z"/><path fill="#000" d="M11 15.4c1 0 2.025.8 2.525 1.6-.599.184-1.155.326-1.698.465-.637.162-1.255.32-1.902.535l-1-.7c-.4-.3-.5-.8.1-1.2.6-.5 1.275-.7 1.975-.7ZM21.2 15.4c-1 0-2.025.8-2.525 1.6.599.184 1.155.326 1.698.465.636.162 1.255.32 1.902.535l1-.7c.4-.3.5-.8-.1-1.2-.6-.5-1.275-.7-1.975-.7Z"/><path fill="#fff" d="M9.015 17.367a2.607 2.607 0 0 1 5.085.128.428.428 0 0 1-.425.505H9.518a.512.512 0 0 1-.503-.633ZM22.985 17.367a2.617 2.617 0 0 0-2.527-1.967 2.6 2.6 0 0 0-2.557 2.096.428.428 0 0 0 .424.504h4.157a.512.512 0 0 0 .503-.633Z"/><path fill="#7D4533" d="M10.259 17.557a1.664 1.664 0 1 1 3.268.443h-3.209a1.655 1.655 0 0 1-.06-.443ZM21.741 17.557c0-.926-.75-1.665-1.668-1.665a1.65 1.65 0 0 0-1.659 1.665c0 .157.02.305.06.443h3.208c.04-.148.06-.286.06-.443Z"/><path fill="#000" d="M11.927 16.611a.947.947 0 0 1 .84 1.389h-1.679a.947.947 0 0 1 .84-1.389ZM20.063 16.611a.947.947 0 0 0-.84 1.389h1.679a.947.947 0 0 0-.84-1.389Z"/><path fill="#fff" d="M11.65 16.92c0 .166-.132.3-.295.3a.298.298 0 0 1-.296-.3c0-.166.132-.3.296-.3.163 0 .296.134.296.3ZM19.846 16.92c0 .166-.133.3-.297.3a.298.298 0 0 1-.296-.3c0-.166.133-.3.296-.3.164 0 .297.134.297.3Z"/><path fill="#D37034" d="m9.665 14.585-.008.005a.5.5 0 0 1-.514-.857l.001-.001.002-.002.006-.003.017-.01a3.226 3.226 0 0 1 .277-.143c.184-.088.445-.2.764-.302.634-.202 1.52-.372 2.477-.203a.5.5 0 1 1-.174.985c-.743-.132-1.457-.002-1.998.171a5.088 5.088 0 0 0-.85.36ZM22.857 13.732h-.001l-.002-.002-.005-.003-.018-.01a4.822 4.822 0 0 0-.277-.143 6.11 6.11 0 0 0-.764-.302c-.634-.202-1.52-.372-2.477-.203a.5.5 0 0 0 .174.985c.743-.132 1.457-.002 1.998.171a5.089 5.089 0 0 1 .85.36l.008.005a.5.5 0 0 0 .514-.858Z"/></svg>
